X: 30
T:
C: Armand Aromin
H: 3/20/05
M: 4/4
L: 1/8
R: Reel
K: Gmaj
d2 Bd gabg | egdg B4 | d4 B2 d2 | e2 Bd A4 |
d2 Bd gabg | egdg B4 | d2 Bd eged | BAdB G2 A2 :|
B2 eB gBeB | d2 ed gded | B2 eB gBeB | A2 eA gAeA |
B2 eB gBeB | d2 ed gded | d2 Bd eged | BAdB G2 A2 :|
egdg BgAg |
